X:1
T:Title
%%score { 1 | 2 }
L:1/8
Q:1/4=77
M:6/8
K:Eb
V:1 treble nm="Grand Piano"
V:2 bass 
V:1
 GGG G>[FA][GB] | [DF][FA][EG] [DF] E2 | [Ge][Bd][Ac] [GB]>GE | [DF][CE][DF] G3 | GGG G>[FA][GB] | %5
w: John~R.~Sweney * * * * *|||||
 ccc [Ac] [GB]2 | [Ge]Gc B>GE | [DF][DG][DF] E3 | G>_G=G F E2 | [GB]>[_G=A][=GB] [F_A] G2 | %10
w: |||||
 eee ddd | c[Ec][Ec] B3 | GGG G>[FA][GB] | ccc [Ac] [GB]2 | [Ge]Gc B>GE | %15
w: |||||
[M:7/4] [A,DF][B,DG][A,DF] [G,E]3 z2 z2 z4 |] %16
w: |
V:2
 [E,B,E][E,B,E][E,B,E] [E,B,E]>[E,B,][E,B,] | [B,,B,][B,,B,][B,,B,] [B,,A,] [E,G,]2 | %2
 [E,B,][E,E][E,E] [E,E]>[E,B,E][E,G,] | [B,,B,][B,,B,][B,,B,] [E,B,E]3 | %4
 [E,B,E][E,B,E][E,B,E] [E,B,E]>[E,B,][E,E] | [A,EA][A,EA][A,EA][K:bass] [E,E] [E,E]2 | %6
 [E,B,][E,B,E][E,A,E] [E,G,E]>[E,B,E][C,=A,] | [B,,A,][B,,B,][B,,A,] [E,G,]3 | %8
 [E,B,E]>[E,=A,E][E,B,E] [E,_A,B,] [E,G,B,]2 | [E,E]>[E,E][E,E] [E,B,] [E,B,E]2 | %10
 [CG][CG][CG] [G,B,F][G,B,F][G,B,F] | [A,CE][A,,A,][A,,A,] [E,G,E]3 | %12
 [E,B,E][E,B,E][E,B,E] [E,B,E]>[E,B,][E,E] | [A,EA][A,EA][A,EA][K:bass] [E,E] [E,E]2 | %14
 [E,B,][E,B,E][E,A,E] [E,G,E]>[E,B,E][C,=A,] |[M:7/4] B,,B,,B,, E,3 z2 z2 z4 |] %16

